assets/img/icons/pay-credit.svg

<svg width="24" height="24" viewBox="0 0 24 24" fill="none" xmlns="http://www.w3.org/2000/svg">
<g clip-path="url(#clip0_364_1357)">
<path d="M4.51085 0C4.66616 0.0812953 5.09485 0.443139 5.09485 0.609449V1.69604H8.49142V0.609449C8.49142 0.442608 8.92011 0.0812953 9.07542 0H9.60623C9.76154 0.0812953 10.1902 0.443139 10.1902 0.609449V1.69604H13.5868V0.609449C13.5868 0.442608 14.0155 0.0812953 14.1708 0H14.7016C14.8569 0.0812953 15.2856 0.443139 15.2856 0.609449V1.69604C16.3196 1.77628 17.5642 1.38787 18.3093 2.30709C18.4295 2.45533 18.6822 2.92876 18.6822 3.10091V5.08919H0V3.10091C0 2.89688 0.280299 2.41495 0.426033 2.25395C1.20523 1.39371 2.36951 1.7784 3.39657 1.69604V0.609449C3.39657 0.442608 3.82526 0.0812953 3.98057 0H4.51138H4.51085Z" fill="white"/>
<path d="M23.7749 18.8734C23.4983 19.3033 22.6616 20.3065 22.15 20.3554C22.0048 20.3692 21.9261 20.3352 21.7968 20.2927C21.5213 20.2007 20.5203 19.2236 20.4288 18.9558C20.2384 18.3979 20.5687 17.9792 21.0697 17.7847C20.5559 16.4532 19.122 15.7773 17.7641 16.289C17.2439 16.4851 16.7105 17.026 16.1568 16.4378C15.5324 15.7747 16.1483 15.1668 16.7583 14.8602C19.2502 13.6089 22.3436 15.0722 22.8196 17.8139C23.285 17.7475 23.6041 18.0515 23.7749 18.45V18.874V18.8734Z" fill="white"/>
<path d="M18.6806 6.78711V12.7249C16.6605 12.7966 13.8533 13.8311 14.2511 16.3327C13.6442 16.694 12.9469 17.3194 12.4975 17.8667C11.9242 18.5654 11.7396 19.5032 12.047 20.3592H1.40628C0.868023 20.3592 0 19.492 0 18.9543V6.78711H18.6806ZM11.7141 10.1925C11.5497 10.2217 11.3981 10.3359 11.2763 10.4438L6.15754 15.5622C5.48737 16.3869 6.51922 17.3884 7.35001 16.7535L12.523 11.583C13.0469 10.9613 12.514 10.0485 11.7141 10.1919V10.1925ZM6.67399 11.0394C5.42355 11.2228 5.97191 13.2084 7.18459 12.6117C8.01964 12.201 7.59201 10.9045 6.67399 11.0394ZM11.7683 14.4326C10.5179 14.6159 11.0662 16.6015 12.2789 16.0048C13.114 15.5941 12.6863 14.2976 11.7683 14.4326Z" fill="white"/>
<path d="M16.293 20.3585C16.7573 21.6672 18.1455 22.3309 19.4747 21.9196C20.0465 21.7427 20.3911 21.2288 21.0368 21.5301C21.4634 21.7288 21.5942 22.1911 21.4527 22.6236C21.3129 23.0514 20.3034 23.4892 19.8885 23.6061C17.4605 24.2894 15.0697 22.8351 14.5165 20.4101C14.4495 20.3213 14.2618 20.3739 14.1554 20.3463C13.7065 20.2305 13.5081 19.723 13.6092 19.2942C13.6661 19.0525 14.5314 18.1572 14.7569 18.0025C15.1495 17.7337 15.4973 17.7672 15.8691 18.0509C16.1063 18.2315 16.8903 19.0376 16.9573 19.2964C17.0844 19.7884 16.7706 20.2432 16.2925 20.359L16.293 20.3585Z" fill="white"/>
</g>
<defs>
<clipPath id="clip0_364_1357">
<rect width="24" height="24" fill="white"/>
</clipPath>
</defs>
</svg>

<svg width="24" height="24" fill="none" xmlns="http://www.w3.org/2000/svg"><g clip-path="url(#a)" fill="#fff"><path d="M4.51 0c.156.081.585.443.585.61v1.086H8.49V.609c0-.166.43-.528.584-.609h.531c.156.081.584.443.584.61v1.086h3.397V.609c0-.166.428-.528.584-.609h.53c.156.081.585.443.585.61v1.086c1.034.08 2.278-.308 3.023.611.12.148.373.622.373.794v1.988H0V3.101c0-.204.28-.686.426-.847.78-.86 1.944-.476 2.97-.558V.609c0-.166.43-.528.585-.609h.53Zm19.265 18.873c-.277.43-1.113 1.433-1.625 1.482-.145.014-.224-.02-.353-.062-.276-.092-1.277-1.07-1.368-1.337-.19-.558.14-.977.64-1.171-.513-1.332-1.947-2.008-3.305-1.496-.52.196-1.053.737-1.607.149-.625-.663-.009-1.271.601-1.578 2.492-1.251 5.586.212 6.062 2.954.465-.067.784.238.955.636v.424Z"/><path d="M18.68 6.787v5.938c-2.02.072-4.827 1.106-4.429 3.608-.607.361-1.304.986-1.753 1.534a2.558 2.558 0 0 0-.451 2.492H1.407C.867 20.36 0 19.492 0 18.954V6.787h18.68Zm-6.966 3.406c-.164.029-.316.143-.438.25l-5.118 5.12c-.67.824.361 1.825 1.192 1.19l5.173-5.17a.851.851 0 0 0-.809-1.391Zm-5.04.846c-1.25.184-.702 2.17.51 1.573.836-.411.408-1.707-.51-1.573Zm5.094 3.394c-1.25.183-.702 2.169.51 1.572.836-.41.408-1.707-.51-1.572Zm4.525 5.925c.464 1.31 1.852 1.973 3.182 1.562.572-.177.916-.691 1.562-.39.426.199.557.661.416 1.094-.14.427-1.15.865-1.564.982-2.428.683-4.82-.77-5.372-3.196-.067-.089-.255-.036-.362-.064-.448-.116-.647-.623-.546-1.052.057-.242.922-1.137 1.148-1.291.393-.27.74-.236 1.112.048.237.18 1.021.987 1.088 1.245.127.492-.186.947-.665 1.063h.001Z"/></g><defs><clipPath id="a"><path fill="#fff" d="M0 0h24v24H0z"/></clipPath></defs></svg>
